X:227 
T:Wise Nora
F:file ID: cre.5/227wise
B:CRE5.008 (NÃÂÃÂÃÂÃÂ³ra ChrÃÂÃÂÃÂÃÂ­onna)
N:You can replace the 16th notes in measure *36 with /g2e d2A/
M:6/8
Q:160
R:jig
K:G
D|:GGG G2A|B2G d2B|GGG G2B|A2B cBA|
"5"GGG G2c|BAG ABc|d2e fef|AB/c/A dcA:|
"9"GBc d2c|B2G d2B|GBc d2B|A2B dcA|
"13"GBc d2c|BAG ABc|d2e fef|AB/c/A dcA:|
"17"G2g gdc|B2G d2B|G2g gdB|A2B dcA|
"21"G2g gdc|BAG ABc|d2e fef|AB/c/A dcA:|
"25"GBd GBd|FAc FAc|GBd GBd|gdB dcA|
"29"GBd GBd|BAG ABc|d2e fef|AB/c/A dcA:|
"33"GBd GBd|FAc FAc|GBd GBd|* g/b/a/g/f/e/ d/e/d/c/B/A/|
"37"GB/d/B GB/d/B|BAG ABc|d2e fef|AB/c/A dcA:|
"41"BGB BGB|GBG d2B|GBG BGB| AB/c/A dcA|
"45"BGB BGB|BAG ABc|d2e fef|AB/c/A dcA :|


%%%

